X:472
T:Loch Ruthven
R:Strathspey
B:The Athole Collection
M:C
L:1/8
K:C Minor
g|e>c ~c2 G<cE<c|B>GF>B D<B, F>D|e>c c2 G<c GF/E/|D<G G>=B C2C:|
g|c>g e<g d<g c>G|dc/B/ f>B g>B d<f|c>g e<g d<g c>E|D<G G>=B, C2 C>g|
c>g e<g d<g c>G|dc/B/ f>B g>B d<f|c/d/e/f/ g>e d>B GF/E/|D<G G>=B, C2C||

